X:66
T:The Broken-Legged Chicken
Z:Jack Campin, http://www.campin.me.uk/
S:Northumbrian Minstrelsy
M:3/4
L:1/8
K:G
(3efg BGTB2|Gg```````ga```````ge|(3efg BGTB2|Ga```````ag```````fd |
(3efg BGTB2|A/B/c/d/ e/f/g/a/ ge|(3efg BGTB2|A/B/c/d/ e/f/g/e/ fd:|
(3efg dg`Bg|Gg```````ga```````ge|(3efg dg`Bg|Aa```````ag```````ge |
(3efg dg`Bg|A/B/c/d/ e/f/g/a/ fd|(3efg dg`Bg|A/B/c/d/ e/f/g/e/ fd:|

